icons/survicate.svg

<?xml version="1.0" encoding="UTF-8" standalone="no"?>
<svg width="256px" height="202px" viewBox="0 0 256 202" version="1.1" xmlns="http://www.w3.org/2000/svg" xmlns:xlink="http://www.w3.org/1999/xlink" preserveAspectRatio="xMidYMid">
	<g>
		<path d="M218.5402,110.7195 L182.0062,74.1855 L204.2152,51.9755 C162.6462,7.4455 87.2832,12.1835 51.5262,52.4195 L73.0132,73.9075 L50.1932,96.7275 L73.9572,120.4915 L60.0762,134.3725 L0.0002,73.8515 C45.4272,24.5385 79.1392,0.0425 124.1502,0.0425 C177.4532,0.0425 206.2642,21.5725 256.0002,74.1485 C256.0002,74.1485 218.5402,110.0535 218.5402,110.7195" fill="#29292B"></path>
		<path d="M127.5558,127.0804 L163.7568,90.8794 L90.9848,90.8794 L127.5558,127.0804 Z" fill="#29292B"></path>
		<path d="M98.5078,143.6356 L83.9238,158.2196 L127.8708,201.9996 L202.0218,127.6266 L187.7158,113.3196 L127.8058,172.6376 L98.5078,143.6356 Z" fill="#E8A824"></path>
	</g>
</svg>

<svg xmlns="http://www.w3.org/2000/svg" viewBox="0 0 256 201.957">
  <path fill="#29292b" d="m218.54 110.677-36.534-36.534 22.209-22.21c-41.569-44.53-116.932-39.792-152.689.444l21.487 21.488-22.82 22.82 23.764 23.764-13.881 13.881L0 73.809C45.427 24.496 79.139 0 124.15 0 177.453 0 206.264 21.53 256 74.106c0 0-37.46 35.905-37.46 36.571"/>
  <path fill="#29292b" d="m127.556 127.038 36.2-36.201H90.986z"/>
  <path fill="#e8a824" d="m98.508 143.593-14.584 14.584 43.947 43.78 74.15-74.373-14.305-14.307-59.91 59.318z"/>
</svg>
